icons/currency-rupee.svg

<svg xmlns="http://www.w3.org/2000/svg" width="24" height="24" viewBox="0 0 24 24">
  <path d="M12,1 C18.0751322,1 23,5.92486775 23,12 C23,18.0751322 18.0751322,23 12,23 C5.92486775,23 1,18.0751322 1,12 C1,5.92486775 5.92486775,1 12,1 Z M15,7 L9,7 L8.88337887,7.00672773 C8.38604019,7.06449284 8,7.48716416 8,8 C8,8.55228475 8.44771525,9 9,9 L9,9 L10,9 C10.7402698,9 11.3865854,9.40215912 11.7323993,9.99992059 L11.7323993,9.99992059 L9,10 L8.88337887,10.0067277 C8.38604019,10.0644928 8,10.4871642 8,11 C8,11.5522847 8.44771525,12 9,12 L9,12 L11.7318219,12.0010978 C11.3858696,12.5983051 10.7398681,13 10,13 L10,13 L9,13 L8.88636906,13.0059833 C8.07233231,13.0928192 7.69031813,14.1045317 8.29289322,14.7071068 L8.29289322,14.7071068 L11.2928932,17.7071068 L11.3871006,17.7902954 C11.7793918,18.0953203 12.3466228,18.0675907 12.7071068,17.7071068 L12.7071068,17.7071068 L12.7902954,17.6128994 C13.0953203,17.2206082 13.0675907,16.6533772 12.7071068,16.2928932 L12.7071068,16.2928932 L11.223,14.808 L11.3362714,14.7713639 C12.5801598,14.3306315 13.5411661,13.2919586 13.8737652,12.0008704 L13.8737652,12.0008704 L15,12 L15.1166211,11.9932723 C15.6139598,11.9355072 16,11.5128358 16,11 C16,10.4477153 15.5522847,10 15,10 L15,10 L13.8740471,10.00024 C13.7827256,9.64533239 13.643921,9.30948551 13.4648083,8.99987491 L13.4648083,8.99987491 L15,9 L15.1166211,8.99327227 C15.6139598,8.93550716 16,8.51283584 16,8 C16,7.44771525 15.5522847,7 15,7 L15,7 Z"/>
</svg>

<svg xmlns="http://www.w3.org/2000/svg" viewBox="0 0 24 24">
  <path d="M12 1a11 11 0 1 1 0 22 11 11 0 0 1 0-22zm3 6H8.88A1 1 0 0 0 9 9h1a2 2 0 0 1 1.73 1H8.88A1 1 0 0 0 9 12h2.73A2 2 0 0 1 10 13H8.89a1 1 0 0 0-.6 1.7l3 3 .1.09a1 1 0 0 0 1.32-.08l.08-.1a1 1 0 0 0-.08-1.32l-1.49-1.48.12-.04A4 4 0 0 0 13.87 12h1.25a1 1 0 0 0-.12-2h-1.13c-.09-.35-.23-.7-.4-1h1.65A1 1 0 0 0 15 7z"/>
</svg>
